X:031
T: Humours of Ballymanus
N: O'Farrell's Pocket Companion v.1 (Sky ed. p.30-31)
N: "Irish"
M: 9/8
L: 1/8
Q: 320
R: slip jig
K: D
D|: A3 AGF AGF|A2A AGF Bcd|A3 AGF AGF|EFE cBA Bcd :|
P:2
d2e fed cBA|d2d fed fga|d2e fed cBA|BcB BAF Bcd :|
P:3
D2d dAF dAF|D2d dAF Bcd|D2d dfd AGF|EFE BAF Bcd :|
P:4
A2B AFd AFd|AFd AFd Bcd|A2d AFd AGF|EFE cBA Bcd|
dfd ded cBA|d2d fed fga|gfg afd cBA|BcB BAF Bcd ||
P:5
AFD DFD DED|DFD DED Bcd|AFD DED AGF|EFE cBA Bcd :|
